src/assets/img/book_no_result.svg

<svg width="223" height="163" viewBox="0 0 223 163" fill="none" xmlns="http://www.w3.org/2000/svg">
<path d="M205.639 130.065L195.56 126.821C171.838 119.195 152.324 119.195 128.615 126.821L111.56 132.304L94.5039 126.821C70.7612 119.19 51.2678 119.19 27.5437 126.824L17.4455 130.065C16.646 130.322 15.7971 130.386 14.9679 130.253C14.1388 130.12 13.3529 129.793 12.6742 129.298C11.9955 128.803 11.4432 128.155 11.0624 127.407C10.6815 126.658 10.4829 125.831 10.4827 124.991V17.0942C10.4859 15.9665 10.8462 14.8688 11.5119 13.9586C12.1776 13.0485 13.1145 12.3725 14.1882 12.0279L27.5437 7.73607C51.2678 0.091512 70.7612 0.091512 94.4906 7.72546L111.546 13.2082L128.602 7.72546C152.324 0.091512 171.822 0.091512 195.546 7.72546L208.902 12.0279C209.979 12.3717 210.919 13.0486 211.586 13.9611C212.253 14.8735 212.614 15.9743 212.615 17.1048V124.993C212.616 125.835 212.417 126.664 212.036 127.414C211.654 128.164 211.1 128.813 210.42 129.307C209.739 129.802 208.951 130.129 208.121 130.26C207.29 130.392 206.439 130.325 205.639 130.065Z" fill="white" stroke="#2F3645" stroke-width="3" stroke-miterlimit="10"/>
<path d="M111.501 132.306V13.2083" stroke="#2F3645" stroke-width="3" stroke-miterlimit="10"/>
<path d="M197.817 28.5265L195.552 27.7971C172.008 20.2294 152.623 20.1737 129.143 27.6273L128.613 27.7971" stroke="#2F3645" stroke-width="3" stroke-miterlimit="10" stroke-linecap="round"/>
<path d="M197.817 41.7758L195.552 41.0464C172.008 33.4788 152.623 33.4231 129.143 40.8766L128.613 41.0464" stroke="#2F3645" stroke-width="3" stroke-miterlimit="10" stroke-linecap="round"/>
<path d="M197.817 57.2348L195.552 56.5053C172.008 48.9377 152.623 48.8793 129.143 56.3329L128.613 56.5053" stroke="#2F3645" stroke-width="3" stroke-miterlimit="10" stroke-linecap="round"/>
<path d="M197.817 70.4841L195.552 69.7546C172.003 62.187 152.618 62.1287 129.138 69.5875L128.607 69.7599" stroke="#2F3645" stroke-width="3" stroke-miterlimit="10" stroke-linecap="round"/>
<path d="M95.2467 81.3462L92.9815 80.6167C69.4377 73.0491 50.0531 72.9907 26.573 80.4443L26.0425 80.6167" stroke="#2F3645" stroke-width="3" stroke-miterlimit="10" stroke-linecap="round"/>
<path d="M95.2467 94.5955L92.9815 93.8661C69.4351 86.2985 50.0531 86.2401 26.573 93.6937L26.0425 93.8661" stroke="#2F3645" stroke-width="3" stroke-miterlimit="10" stroke-linecap="round"/>
<path d="M95.2467 107.845L92.9815 107.115C69.4351 99.5609 50.0531 99.4893 26.573 106.943L26.0425 107.115" stroke="#2F3645" stroke-width="3" stroke-miterlimit="10" stroke-linecap="round"/>
<path d="M197.817 127.553L205.642 130.065C206.441 130.322 207.29 130.387 208.119 130.253C208.948 130.12 209.734 129.793 210.412 129.298C211.091 128.803 211.643 128.155 212.024 127.407C212.404 126.658 212.602 125.83 212.602 124.991V26.683L216.992 27.9854C219.379 28.6936 221 30.744 221 33.0596V140.959C221 144.574 217.186 147.139 213.456 146.033L202.52 142.797C176.814 135.171 155.684 135.171 129.981 142.797L111.501 148.28L93.0186 142.797C67.3157 135.171 46.1857 135.171 20.4828 142.797L9.54377 146.033C5.83024 147.139 2 144.574 2 140.959V33.0596C2 30.744 3.62069 28.6936 6.00796 27.9854L10.4881 26.6591V124.993C10.489 125.832 10.6879 126.659 11.0686 127.407C11.4493 128.154 12.0011 128.802 12.6791 129.296C13.357 129.79 14.142 130.117 14.9703 130.251C15.7985 130.385 16.6466 130.321 17.4456 130.065L27.5252 126.821C51.2493 119.195 70.7613 119.195 94.4722 126.821L111.528 132.304L122.981 128.622L128.584 126.821C152.305 119.195 171.82 119.195 195.528 126.821L197.817 127.553Z" fill="#E6B9A6" stroke="#2F3645" stroke-width="3" stroke-miterlimit="10"/>
<path d="M216.796 150.115L195.18 119.93C194.458 118.8 193.37 117.952 192.098 117.527C190.826 117.102 189.447 117.126 188.191 117.595L182.963 109.407C189.926 103.74 194.458 95.6242 195.629 86.7233C196.801 77.8224 194.523 68.8105 189.264 61.5345C184.005 54.2586 176.162 49.2698 167.343 47.5905C158.524 45.9113 149.396 47.6688 141.831 52.5029C134.266 57.3369 128.836 64.8814 126.655 73.5901C124.473 82.2987 125.705 91.5119 130.098 99.3413C134.492 107.171 141.713 113.023 150.282 115.7C158.852 118.376 168.12 117.674 176.188 113.736L181.419 121.922C180.466 122.865 179.865 124.107 179.717 125.439C179.568 126.772 179.881 128.115 180.602 129.245L202.215 159.433C203.052 160.742 204.374 161.665 205.891 161.999C207.409 162.333 208.996 162.052 210.306 161.215L215.014 158.21C216.324 157.373 217.247 156.05 217.581 154.532C217.916 153.013 217.633 151.425 216.796 150.115ZM136.493 97.6432C133.426 92.8437 131.851 87.2426 131.967 81.548C132.083 75.8534 133.885 70.321 137.145 65.6503C140.405 60.9796 144.976 57.3804 150.282 55.3078C155.587 53.2351 161.388 52.782 166.95 54.0058C172.513 55.2296 177.588 58.0754 181.534 62.1832C185.479 66.2911 188.118 71.4766 189.117 77.0842C190.116 82.6918 189.429 88.4695 187.145 93.687C184.86 98.9045 181.079 103.327 176.281 106.397C173.094 108.435 169.537 109.826 165.812 110.489C162.088 111.152 158.269 111.075 154.574 110.263C150.879 109.45 147.381 107.917 144.278 105.752C141.176 103.586 138.531 100.831 136.493 97.6432Z" fill="#2F3645"/>
<path d="M143.605 93.1207C145.385 93.1207 146.827 91.6778 146.827 89.8979C146.827 88.118 145.385 86.6751 143.605 86.6751C141.825 86.6751 140.382 88.118 140.382 89.8979C140.382 91.6778 141.825 93.1207 143.605 93.1207Z" fill="#2F3645"/>
<path d="M156.748 60.3037C159.134 59.9368 161.565 59.978 163.936 60.4257C164.411 60.514 164.861 60.7059 165.253 60.9875C165.645 61.2692 165.97 61.6338 166.205 62.0555C166.441 62.4771 166.58 62.9454 166.614 63.427C166.648 63.9087 166.575 64.3919 166.401 64.8422C166.121 65.5571 165.599 66.1513 164.926 66.5215C164.254 66.8918 163.473 67.0146 162.719 66.8687C160.628 66.4722 158.475 66.5341 156.41 67.0502C154.346 67.5663 152.417 68.5243 150.758 69.858C149.1 71.1917 147.75 72.8695 146.802 74.7755C145.855 76.6815 145.332 78.7703 145.271 80.8979C145.245 81.6612 144.953 82.3914 144.446 82.9624C143.939 83.5335 143.248 83.9094 142.494 84.0252C142.016 84.0981 141.529 84.0648 141.066 83.9276C140.603 83.7904 140.176 83.5527 139.815 83.2314C139.455 82.9101 139.169 82.5133 138.98 82.0691C138.79 81.6249 138.701 81.1444 138.719 80.6618C139.051 70.6486 146.523 61.8767 156.748 60.3037Z" fill="#2F3645"/>
<path d="M60.6575 46.1419C65.7467 46.1419 69.8723 43.3024 69.8723 39.7998C69.8723 36.2971 65.7467 33.4576 60.6575 33.4576C55.5683 33.4576 51.4426 36.2971 51.4426 39.7998C51.4426 43.3024 55.5683 46.1419 60.6575 46.1419Z" stroke="#2F3645" stroke-width="3" stroke-miterlimit="10" stroke-linecap="round"/>
<path d="M76.9651 31.126L84.5486 38.0412" stroke="#2F3645" stroke-width="3" stroke-miterlimit="10" stroke-linecap="round"/>
<path d="M76.9651 38.0412L84.5486 31.126" stroke="#2F3645" stroke-width="3" stroke-miterlimit="10" stroke-linecap="round"/>
<path d="M36.8088 31.126L44.3897 38.0412" stroke="#2F3645" stroke-width="3" stroke-miterlimit="10" stroke-linecap="round"/>
<path d="M36.8088 38.0412L44.3897 31.126" stroke="#2F3645" stroke-width="3" stroke-miterlimit="10" stroke-linecap="round"/>
</svg>

<svg width="223" height="163" fill="none" xmlns="http://www.w3.org/2000/svg"><path d="m205.639 130.065-10.079-3.244c-23.722-7.626-43.236-7.626-66.945 0l-17.055 5.483-17.056-5.483c-23.743-7.631-43.236-7.631-66.96.003l-10.099 3.241a5.335 5.335 0 0 1-6.383-2.658 5.33 5.33 0 0 1-.58-2.416V17.094a5.337 5.337 0 0 1 3.706-5.066l13.356-4.292C51.268.092 70.76.092 94.49 7.726l17.055 5.482 17.056-5.483c23.722-7.633 43.22-7.633 66.944 0l13.356 4.303a5.333 5.333 0 0 1 3.713 5.077v107.888a5.33 5.33 0 0 1-4.494 5.267 5.328 5.328 0 0 1-2.482-.195z" fill="#fff" stroke="#2F3645" stroke-width="3" stroke-miterlimit="10"/><path d="M111.501 132.306V13.208" stroke="#2F3645" stroke-width="3" stroke-miterlimit="10"/><path d="m197.817 28.526-2.265-.729c-23.544-7.568-42.929-7.623-66.409-.17l-.53.17M197.817 41.776l-2.265-.73c-23.544-7.567-42.929-7.623-66.409-.17l-.53.17M197.817 57.235l-2.265-.73c-23.544-7.567-42.929-7.626-66.409-.172l-.53.172M197.817 70.484l-2.265-.73c-23.549-7.567-42.934-7.625-66.414-.166l-.531.172M95.247 81.346l-2.266-.73c-23.543-7.567-42.928-7.625-66.408-.172l-.53.173M95.247 94.596l-2.266-.73c-23.546-7.567-42.928-7.626-66.408-.172l-.53.172M95.247 107.845l-2.266-.73c-23.546-7.554-42.928-7.626-66.408-.172l-.53.172" stroke="#2F3645" stroke-width="3" stroke-miterlimit="10" stroke-linecap="round"/><path d="m197.817 127.553 7.825 2.512a5.319 5.319 0 0 0 4.77-.767 5.338 5.338 0 0 0 1.612-1.891 5.34 5.34 0 0 0 .578-2.416V26.683l4.39 1.302c2.387.709 4.008 2.759 4.008 5.075v107.899c0 3.615-3.814 6.18-7.544 5.074l-10.936-3.236c-25.706-7.626-46.836-7.626-72.539 0l-18.48 5.483-18.482-5.483c-25.703-7.626-46.833-7.626-72.536 0l-10.94 3.236C5.83 147.139 2 144.574 2 140.959v-107.9c0-2.315 1.62-4.365 4.008-5.074l4.48-1.326v98.334a5.335 5.335 0 0 0 4.482 5.258c.829.134 1.677.07 2.476-.186l10.08-3.244c23.723-7.626 43.235-7.626 66.946 0l17.056 5.483 11.453-3.682 5.603-1.801c23.721-7.626 43.236-7.626 66.944 0l2.289.732z" fill="#E6B9A6" stroke="#2F3645" stroke-width="3" stroke-miterlimit="10"/><path d="M216.796 150.115 195.18 119.93a5.861 5.861 0 0 0-6.989-2.335l-5.228-8.188a35.16 35.16 0 0 0 6.301-47.872 35.164 35.164 0 1 0-13.076 52.201l5.231 8.186a5.865 5.865 0 0 0-.817 7.323l21.613 30.188a5.859 5.859 0 0 0 8.091 1.782l4.708-3.005a5.858 5.858 0 0 0 1.782-8.095zm-80.303-52.472a28.801 28.801 0 1 1 48.538-31.017 28.801 28.801 0 0 1-48.538 31.017z" fill="#2F3645"/><path d="M143.605 93.12a3.222 3.222 0 1 0 0-6.443 3.222 3.222 0 0 0 0 6.444zM156.748 60.304a21.298 21.298 0 0 1 7.188.122 3.288 3.288 0 0 1 2.465 4.416 3.284 3.284 0 0 1-3.682 2.027 14.716 14.716 0 0 0-15.917 7.906 14.708 14.708 0 0 0-1.531 6.123 3.278 3.278 0 1 1-6.552-.236c.332-10.013 7.804-18.785 18.029-20.358z" fill="#2F3645"/><path d="M60.657 46.142c5.09 0 9.215-2.84 9.215-6.342 0-3.503-4.125-6.342-9.215-6.342-5.089 0-9.214 2.84-9.214 6.342s4.125 6.342 9.215 6.342zM76.965 31.126l7.584 6.915M76.965 38.041l7.584-6.915M36.809 31.126l7.58 6.915M36.809 38.041l7.58-6.915" stroke="#2F3645" stroke-width="3" stroke-miterlimit="10" stroke-linecap="round"/></svg>
